X:888
T:Reel 888
M:4/4
K:Dmaj
L:1/8
AG|FEDA  (3Bcd AF|GBAF GEEG|FEDE FGAc| (3Bcd eg fdec|dcAB AFGA|G|FAGE FDDE|FAdc  (3dcB AF|GBAG FDD|c|d2de fdec|dfed cAAc|d2fd cdec|dfed cAAB|=cBcd fdef|gfed cdeg|fdec dcAB|cBAG FDD|
